X:1
T:Quickstep
T:Quickstep
T:Quick Step (8)
T:John Pringle
C:John Pringle
L:1/8
M:2/4
K:Bb
V:1 treble 
V:1
 d/c/ | Bbag | fd Bd/f/ | (ed).c.B | (B/A/).c/.A/ FG/A/ | Bbaf | ge cf/e/ | dB e/c/B/A/ | BB B :: %9
 A/B/ | cc (c/B/A/).B/ | cAFA | (Bd).g.^f | g2 ga/b/ | fbdf | Bdfd | ecdB | %17
 c/B/A/G/ F/E/D/A/!D.C.! :| %18

